!!!SOCIAL_FUNCTION: hand game and ghost dance songs
!!!PDT:	1929
!!!LING_GROUP: Caddoan
!!!LANG: Non-Tone
!!!REG: Oklahoma
!!!COM: Anon.
!!!OTL: Hand Game Guessing Song (g)
!!!ODT: <1920//
!!!MPN: Horse Chief [Spotted Horse Chief]
!!!MLC: Pawnee, Oklahoma, United States of America
!! Song was recorded either 1919 or 1920.
!!!AGN: monody
!!!AMT: irregular
!!!RWG: Transcribed pitches, durations, and meters are only approximate.
!! Drum not recorded
**kern
*ICvox
*Imale
*clefF4
*k[b-]
*M2/4
*MM100
8c
16c
16r;
=1
8c
8c
8c
8c
=2
8c
8A
8A
8G
=3
8F
8F
8F
8r
=4
8C
8A
8A
8G
=5
8G
8G
8G
8G
=6
8B-
8F
8F
8r
=7
8D
8D
8D
8D
=8
8F
8D
8D
8C
=9
8C
8C
8C
8C
=10
4r
8G
16G
16r;
=11
8G
8G
8G
8G
=12
8G
8F
8F
8r
=13
8F
8F
8F
8F
=14
4F
==
*-
!!!HAO: [no description]
!!!HTX: [no free translation]
!!!CNT: Pawnee
!!!TXO: Pawnee
!!!OCY: United States
!!!OCL: Frances Densmore
!!!YOR: Frances Densmore, "Pawnee Music"
!!!YOR: Bulletin 93, page 75, No. 46
!!!PPR: Smithsonian Institution, Bureau of American Ethnology
!!!PPR: Government Printing Office
!!!PDT: 1926
!!!PPP: Washington, DC, United States of America
!!!YEC: Electronic Copyright 2000 David Huron
!!!YER: September 2000
!!!YEN: United States of America
!!!ENC: David Huron
!!!RDT: September 3, 2000
!!!EEV: Release 1.0
!!!AIN: vox
